svgs/thin/comment-image.svg

<svg xmlns="http://www.w3.org/2000/svg" viewBox="0 0 512 512"><!--! Font Awesome Pro 6.3.0 by @fontawesome - https://fontawesome.com License - https://fontawesome.com/license (Commercial License) Copyright 2023 Fonticons, Inc. --><path d="M256 32C114.6 32 .0273 125.1 .0273 240c0 49.59 21.38 95.03 56.97 130.7c-12.5 50.39-54.27 95.27-54.77 95.77c-2.188 2.297-2.781 5.734-1.5 8.734C2.041 478.2 4.813 480 8 480c66.31 0 116-31.78 140.6-51.39C181.3 440.9 217.6 448 256 448C397.4 448 512 354.9 512 240S397.4 32 256 32zM256 432c-35.12 0-69.36-6.184-101.8-18.38L145.7 410.4l-7.105 5.666c-20.2 16.11-60.14 42.04-112.7 47.06c14.44-18.29 37.42-51.68 46.57-88.59l2.172-8.758l-6.371-6.391C34.1 325.1 16 283.8 16 240c0-105.9 107.7-192 240-192s240 86.13 240 192S388.3 432 256 432zM160 200c22.06 0 40-17.94 40-40S182.1 120 160 120S120 137.9 120 160S137.9 200 160 200zM160 136c13.22 0 24 10.77 24 24S173.2 184 160 184S136 173.2 136 160S146.8 136 160 136zM312.6 153.7c-9.094-12.16-29.47-12.16-38.56 .0313L202.2 250.7L186.1 232.2c-9.125-10.44-27-10.41-36.13-.0313l-55.97 64c-6.219 7.031-7.719 17.16-3.812 25.75C94.06 330.5 102.6 336 112 336h288c9.125 0 17.31-5.062 21.41-13.19c4.125-8.156 3.312-17.78-2.125-25.09L312.6 153.7zM407.2 315.6c-1.344 2.719-4.125 4.438-7.156 4.438h-288c-3.125 0-5.969-1.844-7.281-4.688C103.4 312.5 103.9 309.1 105.1 306.8l56-64.03C163.5 241 165.7 240 168 240s4.5 1 5.999 2.75l29.28 33.41l83.59-112.9c3.094-4.062 9.844-4.094 12.88-.0313l106.7 144C408.3 309.7 408.5 312.9 407.2 315.6z"/></svg>

<svg xmlns="http://www.w3.org/2000/svg" viewBox="0 0 512 512"><!-- Font Awesome Pro 6.0.0-alpha2 by @fontawesome - https://fontawesome.com License - https://fontawesome.com/license (Commercial License) --><path d="M256 32C114.594 32 0 125.094 0 240C0 289.594 21.406 335 57 370.703C44.5 421.094 2.688 466 2.188 466.5C0 468.797 -0.594 472.203 0.688 475.203C1.999 478.203 4.812 480 8 480C74.312 480 124 448.203 148.594 428.594C181.312 440.906 217.594 448 256 448C397.406 448 512 354.906 512 240S397.406 32 256 32ZM256 432C220.879 432 186.641 425.816 154.23 413.619L145.723 410.418L138.617 416.084C118.418 432.189 78.477 458.119 25.957 463.143C40.395 444.848 63.375 411.461 72.531 374.555L74.703 365.797L68.332 359.406C34.098 325.066 16 283.775 16 240C16 134.131 123.664 48 256 48S496 134.131 496 240S388.336 432 256 432ZM160 200C182.062 200 200 182.062 200 160S182.062 120 160 120S120 137.938 120 160S137.938 200 160 200ZM160 136C173.219 136 184 146.766 184 160S173.219 184 160 184S136 173.234 136 160S146.781 136 160 136ZM312.594 153.688C303.5 141.531 283.125 141.531 274.031 153.719L202.219 250.656L186.062 232.219C176.938 221.781 159.062 221.812 149.938 232.187L93.969 296.187C87.75 303.219 86.25 313.344 90.156 321.937C94.062 330.469 102.625 336 112 336H400C409.125 336 417.312 330.938 421.406 322.812C425.531 314.656 424.719 305.031 419.281 297.719L312.594 153.688ZM407.156 315.562L407.125 315.594C405.781 318.312 403.031 320 400 320H112C108.875 320 106.031 318.156 104.719 315.312C103.438 312.469 103.906 309.094 105.999 306.75L161.999 242.719C163.5 241 165.688 240 168 240S172.5 241 173.999 242.75L203.281 276.156L286.875 163.25C289.969 159.188 296.719 159.156 299.75 163.219L406.438 307.25C408.25 309.688 408.5 312.875 407.156 315.562Z"/></svg>
